img/icons/logo_search.svg

<svg width="28" height="28" viewBox="0 0 28 28" fill="none" xmlns="http://www.w3.org/2000/svg">
<path fill-rule="evenodd" clip-rule="evenodd" d="M20.539 4.14491C16.012 -0.381636 8.67227 -0.381637 4.14527 4.14491C-0.381755 8.67147 -0.381755 16.0105 4.14527 20.537C8.30994 24.7013 14.8547 25.0345 19.4007 21.537L24.6947 26.8306C25.254 27.3898 26.1608 27.3898 26.7201 26.8306L26.8305 26.7202C27.3898 26.1609 27.3898 25.2542 26.8305 24.6949L21.5368 19.4018C25.0371 14.8562 24.7046 8.31007 20.539 4.14491ZM6.17064 6.17015C9.57906 2.76208 15.1052 2.76208 18.5136 6.17015C21.922 9.57821 21.922 15.1037 18.5136 18.5118C15.1052 21.9199 9.57906 21.9199 6.17064 18.5118C2.76224 15.1037 2.76224 9.57821 6.17064 6.17015Z" fill="#141414"/>
</svg>

<svg width="28" height="28" fill="none" xmlns="http://www.w3.org/2000/svg"><path fill-rule="evenodd" clip-rule="evenodd" d="M20.539 4.145c-4.527-4.527-11.867-4.527-16.394 0-4.527 4.526-4.527 11.866 0 16.392 4.165 4.164 10.71 4.498 15.256 1l5.294 5.294a1.432 1.432 0 002.025 0l.11-.11c.56-.56.56-1.467 0-2.026l-5.293-5.293c3.5-4.546 3.168-11.092-.998-15.257zM6.171 6.17a8.728 8.728 0 0112.343 12.342A8.728 8.728 0 016.17 6.17z" fill="#141414"/></svg>
